COLOR/categories 16/16/preferences-system-windows.svg

<svg height="16" width="16.000086" xmlns="http://www.w3.org/2000/svg"><path d="m4.4056021.50000636c-3.47603998 0-3.85005998.30899-3.83301998 3.32331004v4.1766902 4.1766794c-.017 3.01433.35698 3.32332 3.83301998 3.32332h7.1899599c3.47605 0 3.83303-.30895 3.83303-3.32332v-4.1766794-4.1766902c0-3.01436004-.35699-3.32331004-3.83303-3.32331004z" fill="#5884f4"/><path d="m12.013562 6.0037564c.38466-.005.64285.0815.77552.24075.13929.16584.21092.43787.21092.816v3.8827396c0 .37814-.0716.65015-.21092.816-.13267.15922-.39083.24075-.77552.24075h-5.0271199c-.38469 0-.64357-.0815-.77623-.24075-.13928-.16585-.21021-.43786-.21021-.816v-3.8827396c0-.37813.0709-.65016.21021-.816.13265-.15921.39154-.24076.77623-.24076z" fill="#a2bcfe"/><path d="m9.0135621 2.9432464c.38466-.005.64285.0815.77552.24075.13929.16584.2109199.43787.2109199.816v3.9295202c0 .37813-.0716.65015-.2109199.81599-.13267.15922-.39083.24075-.77552.24075h-5.02712c-.38469 0-.64357-.0815-.77623-.24075-.13928-.16584-.21021-.43786-.21021-.81599v-3.9295202c0-.37813.0709-.65016.21021-.816.13265-.15921.39154-.24076.77623-.24076z" fill="#fff"/><path d="m4.40625.5c-3.47603998 0-3.85102437.30989871-3.83398438 3.3242188v.5c-.01703999-3.0143201.3579444-3.3242188 3.83398438-3.3242188h7.189453c3.47604 0 3.832031.3098588 3.832031 3.3242188v-.5c0-3.01436009-.355991-3.3242188-3.832031-3.3242188z" fill="#fff" opacity=".3"/><path d="m11.593219 15.5c3.47604 0 3.851025-.309899 3.833985-3.324219v-.5c.01704 3.01432-.357945 3.324219-3.833985 3.324219h-7.1894528c-3.47604001 0-3.83203101-.309859-3.83203101-3.324219v.5c0 3.01436.355991 3.324219 3.83203101 3.324219z" opacity=".2"/></svg>

<?xml version="1.0" encoding="UTF-8" standalone="no"?>
<svg
   xmlns:osb="http://www.openswatchbook.org/uri/2009/osb"
   xmlns:dc="http://purl.org/dc/elements/1.1/"
   xmlns:cc="http://creativecommons.org/ns#"
   xmlns:rdf="http://www.w3.org/1999/02/22-rdf-syntax-ns#"
   xmlns:svg="http://www.w3.org/2000/svg"
   xmlns="http://www.w3.org/2000/svg"
   xmlns:sodipodi="http://sodipodi.sourceforge.net/DTD/sodipodi-0.dtd"
   xmlns:inkscape="http://www.inkscape.org/namespaces/inkscape"
   height="16"
   id="svg7384"
   version="1.1"
   width="16.000086"
   sodipodi:docname="session-properties.svg"
   inkscape:version="0.92.4 (5da689c313, 2019-01-14)">
  <sodipodi:namedview
     pagecolor="#ffffff"
     bordercolor="#666666"
     borderopacity="1"
     objecttolerance="10"
     gridtolerance="10"
     guidetolerance="10"
     inkscape:pageopacity="0"
     inkscape:pageshadow="2"
     inkscape:window-width="1920"
     inkscape:window-height="1016"
     id="namedview22"
     showgrid="false"
     inkscape:zoom="14.75"
     inkscape:cx="-4.8135164"
     inkscape:cy="8"
     inkscape:window-x="0"
     inkscape:window-y="27"
     inkscape:window-maximized="1"
     inkscape:current-layer="svg7384" />
  <metadata
     id="metadata20854">
    <rdf:RDF>
      <cc:Work
         rdf:about="">
        <dc:title />
        <dc:format>image/svg+xml</dc:format>
        <dc:type
           rdf:resource="http://purl.org/dc/dcmitype/StillImage" />
      </cc:Work>
    </rdf:RDF>
  </metadata>
  <defs
     id="defs7386">
    <linearGradient
       id="linearGradient5606"
       osb:paint="solid">
      <stop
         id="stop5608"
         offset="0"
         style="stop-color:#000000;stop-opacity:1;" />
    </linearGradient>
    <linearGradient
       id="linearGradient4526"
       osb:paint="solid">
      <stop
         id="stop4528"
         offset="0"
         style="stop-color:#ffffff;stop-opacity:1;" />
    </linearGradient>
    <linearGradient
       id="linearGradient3600-4"
       osb:paint="gradient">
      <stop
         id="stop3602-7"
         offset="0"
         style="stop-color:#f4f4f4;stop-opacity:1" />
      <stop
         id="stop3604-6"
         offset="1"
         style="stop-color:#dbdbdb;stop-opacity:1" />
    </linearGradient>
    <clipPath
       clipPathUnits="userSpaceOnUse"
       id="clipPath983">
      <path
         sodipodi:nodetypes="scccssscsss"
         inkscape:connector-curvature="0"
         id="path985"
         d="m 325.09646,237 c -2.80769,0 -3.10979,0.28839 -3.09603,3.10176 V 244 v 3.89824 c -0.0138,2.81337 0.28834,3.10176 3.09603,3.10176 h 5.8075 C 333.71166,251 334,250.71165 334,247.89824 V 244 240.10176 C 334,237.28836 333.71165,237 330.90396,237 Z"
         style="color:#000000;display:inline;overflow:visible;visibility:visible;opacity:1;fill:#46a926;fill-opacity:1;fill-rule:nonzero;stroke:none;stroke-width:2;stroke-miterlimit:4;stroke-dasharray:none;stroke-opacity:1;marker:none;enable-background:accumulate" />
    </clipPath>
  </defs>
  <g
     id="layer9"
     label="status"
     style="display:inline"
     transform="translate(-713.0002,67)" />
  <g
     id="layer2"
     style="display:inline"
     transform="translate(-472,-300)" />
  <g
     id="layer4"
     style="display:inline"
     transform="translate(-472,-300)" />
  <g
     id="g1812"
     style="display:inline"
     transform="translate(-472,-300)" />
  <g
     id="g6217"
     style="display:inline"
     transform="translate(-472,-300)" />
  <g
     id="layer3"
     style="display:inline"
     transform="translate(-472,-300)" />
  <g
     id="layer1"
     style="display:inline"
     transform="translate(-472,-300)" />
  <path
     style="color:#000000;display:inline;overflow:visible;visibility:visible;fill:#5884f4;fill-opacity:1;fill-rule:nonzero;stroke:none;stroke-width:1;marker:none;enable-background:accumulate"
     d="m 4.4056021,0.50000636 c -3.47603998,0 -3.85005998,0.30899 -3.83301998,3.32331004 v 4.1766902 4.1766794 c -0.017,3.01433 0.35698,3.32332 3.83301998,3.32332 h 7.1899599 c 3.47605,0 3.83303,-0.30895 3.83303,-3.32332 V 8.0000066 3.8233164 c 0,-3.01436004 -0.35699,-3.32331004 -3.83303,-3.32331004 z"
     id="path918"
     inkscape:connector-curvature="0"
     sodipodi:nodetypes="scccssscsss" />
  <path
     sodipodi:nodetypes="ccsscsscsscsc"
     inkscape:connector-curvature="0"
     id="path968"
     d="m 12.013562,6.0037564 c 0.38466,-0.005 0.64285,0.0815 0.77552,0.24075 0.13929,0.16584 0.21092,0.43787 0.21092,0.816 v 3.8827396 c 0,0.37814 -0.0716,0.65015 -0.21092,0.816 -0.13267,0.15922 -0.39083,0.24075 -0.77552,0.24075 H 6.9864421 c -0.38469,0 -0.64357,-0.0815 -0.77623,-0.24075 -0.13928,-0.16585 -0.21021,-0.43786 -0.21021,-0.816 V 7.0605064 c 0,-0.37813 0.0709,-0.65016 0.21021,-0.816 0.13265,-0.15921 0.39154,-0.24076 0.77623,-0.24076 z"
     style="font-style:normal;font-variant:normal;font-weight:normal;font-stretch:normal;font-size:15px;line-height:125%;font-family:Ubuntu;-inkscape-font-specification:Ubuntu;text-align:center;letter-spacing:0px;word-spacing:0px;writing-mode:lr-tb;text-anchor:middle;display:inline;fill:#a2bcfe;fill-opacity:1;stroke:none;stroke-width:1.99999976;enable-background:new" />
  <path
     style="font-style:normal;font-variant:normal;font-weight:normal;font-stretch:normal;font-size:15px;line-height:125%;font-family:Ubuntu;-inkscape-font-specification:Ubuntu;text-align:center;letter-spacing:0px;word-spacing:0px;writing-mode:lr-tb;text-anchor:middle;display:inline;fill:#ffffff;fill-opacity:1;stroke:none;stroke-width:1.99999976;enable-background:new"
     d="m 9.0135621,2.9432464 c 0.38466,-0.005 0.64285,0.0815 0.77552,0.24075 0.13929,0.16584 0.2109199,0.43787 0.2109199,0.816 v 3.9295202 c 0,0.37813 -0.0716,0.65015 -0.2109199,0.81599 -0.13267,0.15922 -0.39083,0.24075 -0.77552,0.24075 h -5.02712 c -0.38469,0 -0.64357,-0.0815 -0.77623,-0.24075 -0.13928,-0.16584 -0.21021,-0.43786 -0.21021,-0.81599 V 3.9999964 c 0,-0.37813 0.0709,-0.65016 0.21021,-0.816 0.13265,-0.15921 0.39154,-0.24076 0.77623,-0.24076 z"
     id="path971"
     inkscape:connector-curvature="0"
     sodipodi:nodetypes="ccsscsscsscsc" />
  <path
     style="color:#000000;display:inline;overflow:visible;visibility:visible;fill:#ffffff;fill-opacity:1;fill-rule:nonzero;stroke:none;stroke-width:1;marker:none;enable-background:accumulate;opacity:0.3"
     d="M 4.40625 0.5 C 0.93021002 0.5 0.55522563 0.80989871 0.57226562 3.8242188 L 0.57226562 4.3242188 C 0.55522563 1.3098987 0.93021002 1 4.40625 1 L 11.595703 1 C 15.071743 1 15.427734 1.3098588 15.427734 4.3242188 L 15.427734 3.8242188 C 15.427734 0.80985871 15.071743 0.5 11.595703 0.5 L 4.40625 0.5 z "
     id="path843" />
  <path
     id="path849"
     d="m 11.593219,15.5 c 3.47604,0 3.851025,-0.309899 3.833985,-3.324219 v -0.5 C 15.444244,14.690101 15.069259,15 11.593219,15 H 4.4037662 C 0.92772619,15 0.57173519,14.690141 0.57173519,11.675781 v 0.5 c 0,3.01436 0.355991,3.324219 3.83203101,3.324219 z"
     style="color:#000000;display:inline;overflow:visible;visibility:visible;opacity:0.2;fill:#000000;fill-opacity:1;fill-rule:nonzero;stroke:none;stroke-width:1;marker:none;enable-background:accumulate"
     inkscape:connector-curvature="0" />
</svg>
